X: 10693
T: Down The Rushy Glen
R: polka
M: 2/4
K: Gmajor
|:G>A BG|AG E2|GB d2|ed B2|
G>A BG|AG ED|GB d>B|AG G2:|
|:Bd ed|gf ed|G>A BG|AG E2|
Bd ed|g>f e2|G>A BA|G2 E2:|
|:gf ed|gf e2|G>A BG|
[1 AG E2|g2 ed|gf ed|G>A BA|GE E2:|
[2 AG ED|G>A BG|A>G ED|GB d>B|AG G2||

